!!!OTL: ES WOHNT EIN MARKGRAF AN DEM RHEIN
!!!ARE: Europa, Mitteleuropa, Deutschland, Potsdam, Toeplitz
!!!SCT: E0182B
!!!YEM: Copyright 1995, estate of Helmut Schaffrath.
**kern
*ICvox
*Ivox
*M2/4
*k[f#]
*G:
{8d
8g
8d
=1
4g
4dd
=2
8b
8dd
8b}
{8g
=3
8.a
16b
8a
8cc
=4
8.b
16cc
8b}
{8a
=5
4g
4d
=6
8g
8b
8dd}
{8cc
=7
4b
4a
=8
4g
4r
=9
8r}
==
!!!AGN: erzaehlendes Volks - Lied, Sage, Familien - Geschichte
!!!ONB: ESAC (Essen Associative Code) Database: ERK1
!!!AMT: simple duple
!!!AIN: vox
!!!EED: Helmut Schaffrath
!!!EEV: 1.0
*-
